packages/kaspersky-hexa-ui-icons/src/iconsSVGs/24/MacOS2.svg

<svg width="24" height="24" viewBox="0 0 24 24" fill="none" xmlns="http://www.w3.org/2000/svg">
<path fill-rule="evenodd" clip-rule="evenodd" d="M14.7032 7.14019V8.14778H15.7629V3.98598C15.7629 3.67932 15.7093 3.41647 15.6019 3.16822C15.4946 2.91998 15.3471 2.71554 15.1459 2.5403C14.9447 2.36507 14.7166 2.23364 14.4349 2.14603C14.1532 2.05841 13.8581 2 13.5094 2C13.2009 2 12.9058 2.04381 12.6375 2.14603C12.3692 2.23364 12.1412 2.36507 11.94 2.5403C11.7388 2.71554 11.5912 2.90537 11.4705 3.13902C11.3498 3.37266 11.2961 3.62091 11.2827 3.88376H12.329C12.3558 3.75234 12.396 3.63551 12.4631 3.53329C12.5302 3.43107 12.6107 3.32886 12.7046 3.25584C12.7984 3.18283 12.9192 3.12442 13.0533 3.08061C13.1875 3.0368 13.3216 3.0222 13.4691 3.0222C13.8447 3.0222 14.1264 3.10981 14.341 3.29965C14.5422 3.47488 14.6496 3.75234 14.6496 4.1028V4.57009L13.1472 4.65771C12.4497 4.70152 11.9266 4.87675 11.5644 5.18341C11.2022 5.49007 11.0144 5.89895 11.0144 6.43925C11.0144 6.71671 11.0547 6.96495 11.1485 7.184C11.2424 7.40304 11.3766 7.59288 11.5375 7.75351C11.6985 7.91414 11.8997 8.03096 12.1278 8.11858C12.3558 8.20619 12.6107 8.25 12.8923 8.25C13.0801 8.25 13.2679 8.22079 13.4423 8.17699C13.6167 8.13318 13.7911 8.06016 13.9386 7.95794C14.0862 7.87033 14.2203 7.75351 14.3545 7.62208C14.4886 7.44685 14.5959 7.30082 14.6764 7.14019H14.7032ZM14.2471 6.84813C14.113 6.96495 13.9655 7.06717 13.7911 7.14019C13.6167 7.2132 13.4155 7.24241 13.2143 7.24241C12.8923 7.24241 12.6375 7.16939 12.4497 7.00876C12.2619 6.84813 12.168 6.64369 12.168 6.38084C12.168 6.11799 12.2619 5.89895 12.4631 5.75292C12.6509 5.60689 12.946 5.51928 13.335 5.49007L14.6898 5.38785V5.85514C14.6898 6.05958 14.6496 6.23481 14.5825 6.41005C14.4752 6.58528 14.3813 6.73131 14.2471 6.84813Z" fill="black"/>
<path d="M18.4856 3.59171C18.6197 3.41647 18.7673 3.27044 18.9551 3.16822C19.1429 3.066 19.3441 3.0222 19.5721 3.0222C19.7599 3.0222 19.9343 3.0514 20.0818 3.10981C20.2294 3.16822 20.3635 3.24124 20.4842 3.34346C20.5915 3.44568 20.6854 3.5625 20.7525 3.70853C20.8196 3.85456 20.8732 4.00059 20.9001 4.16122H21.9598C21.9329 3.86916 21.8659 3.59171 21.7451 3.32886C21.6244 3.066 21.4634 2.84696 21.2622 2.64252C21.061 2.45269 20.8062 2.29206 20.5245 2.17523C20.2428 2.05841 19.9209 2 19.5587 2C19.1697 2 18.8075 2.07301 18.4856 2.21904C18.1636 2.36507 17.8954 2.56951 17.6673 2.84696C17.4393 3.12442 17.2649 3.44568 17.1442 3.82535C17.0235 4.20502 16.9564 4.62851 16.9564 5.1104C16.9564 5.59229 17.0235 6.03038 17.1442 6.41005C17.2649 6.78972 17.4527 7.12559 17.6807 7.38844C17.9088 7.65129 18.1905 7.85573 18.5124 8.00175C18.8343 8.14778 19.1965 8.2208 19.5855 8.2208C19.9209 8.2208 20.2294 8.16238 20.5111 8.07477C20.7928 7.98715 21.0342 7.82652 21.2488 7.65129C21.45 7.46145 21.6244 7.24241 21.7586 6.97956C21.8927 6.71671 21.9732 6.42465 22 6.11799H20.9403C20.8732 6.48306 20.7257 6.74591 20.4977 6.93575C20.2696 7.12558 19.9745 7.2132 19.6123 7.2132C19.3843 7.2132 19.1831 7.16939 18.9953 7.06717C18.8075 6.97956 18.6465 6.83353 18.5258 6.6583C18.3917 6.48306 18.2978 6.26402 18.2173 6.00117C18.1502 5.73832 18.11 5.44626 18.11 5.125C18.11 4.80374 18.1502 4.52629 18.2173 4.26344C18.2575 3.98598 18.3514 3.76694 18.4856 3.59171Z" fill="black"/>
<path d="M9.84709 8.14661V4.01402C9.84709 3.70736 9.80685 3.42991 9.71295 3.19626C9.61905 2.96262 9.51174 2.74357 9.35078 2.56834C9.18981 2.39311 9.00202 2.26168 8.77398 2.15946C8.54595 2.05724 8.3045 2.01343 8.02281 2.01343C7.8216 2.01343 7.63381 2.04264 7.45943 2.10105C7.28505 2.15946 7.11067 2.23248 6.96312 2.3347C6.81556 2.43692 6.68143 2.56834 6.5607 2.69977C6.43998 2.83119 6.34608 3.00643 6.27901 3.19626H6.25218C6.14487 2.81659 5.94367 2.52453 5.67539 2.32009C5.40711 2.11565 5.07177 2.01343 4.68277 2.01343C4.50839 2.01343 4.33401 2.04264 4.15963 2.08645C3.99866 2.13026 3.85111 2.20327 3.70356 2.30549C3.56942 2.40771 3.44869 2.50993 3.34138 2.65596C3.23407 2.78738 3.15359 2.94801 3.08652 3.10864H3.05969V2.08645H2V8.16122H3.04628V4.4375C3.04628 4.29272 3.10089 4.14795 3.15062 4.01613C3.16609 3.9751 3.1811 3.93532 3.19383 3.8972C3.24749 3.73657 3.32797 3.59054 3.43528 3.45911C3.54259 3.34229 3.66331 3.24007 3.81087 3.16706C3.95842 3.09404 4.11938 3.06484 4.28035 3.06484C4.44132 3.06484 4.58887 3.09404 4.72301 3.15245C4.85715 3.21086 4.96446 3.28388 5.05835 3.3861C5.15225 3.48832 5.21932 3.60514 5.27297 3.75117C5.32663 3.8972 5.35346 4.05783 5.35346 4.21846V8.16122H6.45339V4.39369C6.45339 4.20386 6.48022 4.01402 6.54729 3.85339C6.60094 3.69276 6.68143 3.54673 6.78874 3.42991C6.89605 3.31308 7.01677 3.22547 7.15091 3.15245C7.29846 3.09404 7.44602 3.05023 7.62039 3.05023C7.96915 3.05023 8.23743 3.16706 8.42522 3.3715C8.61302 3.59054 8.70691 3.8972 8.70691 4.29147V8.13201L9.84709 8.14661Z" fill="black"/>
<path fill-rule="evenodd" clip-rule="evenodd" d="M7 10.75C3.92893 10.75 2 12.9194 2 16.375C2 19.8306 3.92893 22 7 22C10.0711 22 12 19.8306 12 16.375C11.9915 12.9194 10.0711 10.75 7 10.75ZM7 20.6109C4.8934 20.6109 3.5736 18.9731 3.5736 16.375C3.5736 13.7683 4.8934 12.1305 7 12.1305C9.09814 12.1305 10.4264 13.7683 10.4264 16.375C10.4179 18.9731 9.09814 20.6109 7 20.6109Z" fill="black"/>
<path d="M18.629 15.71L17.3842 15.4182C15.8668 15.0578 15.2399 14.5858 15.2399 13.7963C15.2399 12.7923 16.2303 12.0973 17.6659 12.0973C19.1015 12.0973 20.0737 12.7838 20.1828 13.8993H21.8092C21.7456 12.0458 20.0828 10.75 17.7022 10.75C15.2671 10.75 13.5498 12.0372 13.5498 13.8822C13.5498 15.3839 14.513 16.3021 16.6482 16.7998L18.1293 17.143C19.6467 17.5034 20.3009 18.0355 20.3009 18.9108C20.3009 19.9233 19.2196 20.6613 17.7204 20.6613C16.1576 20.6613 15.0127 19.9233 14.8855 18.7992H13.25C13.3681 20.7557 15.0854 22 17.6023 22C20.3009 22 22 20.7386 22 18.7134C21.9727 17.1344 21.0005 16.2506 18.629 15.71Z" fill="black"/>
</svg>

<svg xmlns="http://www.w3.org/2000/svg" width="24" height="24" fill="none" viewBox="0 0 24 24"><path fill="#000" fill-rule="evenodd" d="M14.7032 7.1402v1.0076h1.0597V3.986c0-.3067-.0536-.5695-.161-.8178s-.2548-.4527-.456-.6279-.4293-.3067-.711-.3943S13.8581 2 13.5094 2c-.3085 0-.6036.0438-.8719.146-.2683.0876-.4963.219-.6975.3943s-.3488.365-.4695.5987-.1744.482-.1878.7448h1.0463c.0268-.1315.067-.2483.1341-.3505s.1476-.2044.2415-.2775c.0938-.073.2146-.1314.3487-.1752.1342-.0438.2683-.0584.4158-.0584.3756 0 .6573.0876.8719.2774.2012.1753.3086.4527.3086.8032v.4673l-1.5024.0876c-.6975.0438-1.2206.219-1.5828.5257s-.55.7156-.55 1.2559c0 .2774.0403.5256.1341.7447.0939.219.2281.4089.389.5695s.3622.2775.5903.365q.342.1315.7645.1315c.1878 0 .3756-.0292.55-.073s.3488-.1168.4963-.219c.1476-.0877.2817-.2045.4159-.336.1341-.1751.2414-.3212.3219-.4818zm-.4561-.292c-.1341.1167-.2816.219-.456.292s-.3756.1022-.5768.1022c-.322 0-.5768-.073-.7646-.2336s-.2817-.3651-.2817-.628c0-.2628.0939-.4818.2951-.6279.1878-.146.4829-.2336.8719-.2628l1.3548-.1022v.4672c0 .2045-.0402.3797-.1073.555-.1073.1752-.2012.3212-.3354.438" clip-rule="evenodd"/><path fill="#000" d="M18.486 3.592c.134-.175.282-.321.47-.423s.389-.146.617-.146c.188 0 .362.029.51.088s.282.131.402.234c.107.102.201.219.268.365s.121.292.148.453h1.06c-.027-.292-.094-.569-.215-.832s-.282-.482-.483-.686c-.201-.19-.456-.35-.738-.467Q20.102 2 19.559 2c-.389 0-.751.073-1.073.219s-.59.351-.818.628-.402.599-.523.978c-.121.38-.188.803-.188 1.285s.067.92.188 1.3.309.716.537.978c.228.263.51.467.832.613s.684.219 1.073.219c.335 0 .644-.058.926-.146s.523-.248.738-.423c.201-.19.376-.409.51-.672s.215-.555.241-.862h-1.06c-.067.365-.215.628-.443.818s-.523.278-.885.278c-.228 0-.429-.044-.617-.146-.188-.088-.349-.234-.469-.409-.134-.175-.228-.394-.308-.657-.067-.263-.107-.555-.107-.876s.04-.599.107-.862c.04-.277.134-.496.268-.672M9.847 8.147V4.014c0-.307-.04-.584-.134-.818s-.201-.453-.362-.628-.349-.307-.577-.409-.469-.146-.751-.146q-.302 0-.563.088c-.174.059-.349.132-.496.234s-.282.234-.402.365c-.121.132-.215.307-.282.497h-.027c-.107-.38-.308-.672-.577-.876s-.604-.307-.993-.307c-.174 0-.349.029-.523.073-.161.044-.308.117-.456.219-.134.102-.255.205-.362.351-.107.131-.188.292-.255.453H3.06V2.087H2v6.075h1.046V4.438c0-.145.055-.29.104-.421.016-.041.031-.081.043-.119a1.38 1.38 0 0 1 .242-.438c.107-.117.228-.219.376-.292s.309-.102.47-.102q.242 0 .443.088c.134.058.242.131.335.234s.161.219.215.365.081.307.081.467v3.943h1.1V4.394c0-.19.027-.38.094-.54.054-.161.134-.307.241-.423s.228-.204.362-.277c.148-.058.295-.102.47-.102.349 0 .617.117.805.321q.282.329.282.92v3.839z"/><path fill="#000" fill-rule="evenodd" d="M7 10.75c-3.071 0-5 2.1694-5 5.625S3.929 22 7 22c3.0711 0 5-2.1694 5-5.625-.0085-3.4556-1.9289-5.625-5-5.625m0 9.8609c-2.1066 0-3.4264-1.6378-3.4264-4.2359 0-2.6067 1.3198-4.2445 3.4264-4.2445 2.0981 0 3.4264 1.6378 3.4264 4.2445-.0085 2.5981-1.3283 4.2359-3.4264 4.2359" clip-rule="evenodd"/><path fill="#000" d="m18.629 15.71-1.2448-.2918c-1.5174-.3604-2.1443-.8324-2.1443-1.6219 0-1.004.9904-1.699 2.426-1.699s2.4078.6865 2.5169 1.802h1.6264c-.0636-1.8535-1.7264-3.1493-4.107-3.1493-2.4351 0-4.1524 1.2872-4.1524 3.1322 0 1.5017.9632 2.4199 3.0984 2.9176l1.4811.3432c1.5174.3604 2.1716.8925 2.1716 1.7678 0 1.0125-1.0813 1.7505-2.5805 1.7505-1.5628 0-2.7077-.738-2.8349-1.8621H13.25C13.3681 20.7557 15.0854 22 17.6023 22 20.3009 22 22 20.7386 22 18.7134c-.0273-1.579-.9995-2.4628-3.371-3.0034"/></svg>
